X: 1963
T: Arthur Darley's
R: jig
M: 6/8
K: Dmajor
|:A2A AGF|EDC D2A|d2e f2f|edc d2 A|
d2e fed|edc d2A|BAG FED|EDC DA,B, CDE|
Ddd Aee|Aff Agg|fed edc|1 d2d dcB:|2 d2d d=c_B||
|:Aff fef|Aff fef|Aff Agg|Aaa Abb|
Aff fef|Aff feg|fed ed^c|1 d2d dcB:|2 d2A a3||
|:f3 edc|d2A BAG|FED EDC|DA,B, CDE|
Ddd Aee|Aff Agg|fed edc|1 d2A a3:|2 ddd dcB||

